packages/ui-solid/icons/theme_24.svg

<svg width="24" height="24" viewBox="0 0 24 24" fill="none" xmlns="http://www.w3.org/2000/svg">
<path fill-rule="evenodd" clip-rule="evenodd" d="M12.1137 2.09764C12.5745 0.818645 14.2955 0.318376 15.339 1.32554L18.66 4.53076C19.2951 5.14364 19.5254 6.06287 19.2355 6.90213L18.8861 7.91367C18.8835 7.92137 18.8826 7.92608 18.8824 7.92817C18.8837 7.93127 18.889 7.9416 18.9037 7.95395C18.9211 7.96846 18.9415 7.97715 18.9597 7.9798C18.9735 7.98181 18.9941 7.98201 19.0266 7.96634C19.7424 7.62092 20.6094 7.75201 21.1858 8.30834L20.5608 8.95593L21.1858 8.30834L21.5534 8.66311C22.5884 9.66206 22.5884 11.2954 21.5534 12.2943L15.9681 17.6849C16.146 18.3112 15.9816 19.0118 15.4749 19.5008L14.4337 20.5057C13.5099 21.3973 12.025 21.3973 11.1012 20.5057L10.4962 19.9218C10.2338 19.6686 9.63868 19.6796 9.32039 20.1175C8.6292 21.0684 7.68689 22.0762 6.57305 22.5749C5.99952 22.8317 5.35412 22.9649 4.67348 22.8556C3.98943 22.7459 3.34995 22.4041 2.77122 21.8456C2.19367 21.2882 1.82998 20.6624 1.7125 19.9804C1.59535 19.3004 1.73929 18.6591 2.00948 18.097C2.53146 17.0111 3.57998 16.1009 4.55949 15.4378C4.76534 15.2984 4.8886 15.0856 4.91916 14.8796C4.94836 14.6828 4.8935 14.5145 4.76451 14.39L4.15955 13.8061C3.21783 12.8972 3.21783 11.41 4.15955 10.5011L5.20079 9.49615C5.70628 9.00829 6.42253 8.85728 7.05849 9.04313L9.36576 6.81632C10.6021 5.62306 11.5435 3.68015 12.1137 2.09764ZM8.51011 10.1437L14.8499 16.2624L20.3034 10.9991C20.6051 10.7079 20.6051 10.2495 20.3034 9.95829L19.9358 9.60351C19.9239 9.59209 19.9054 9.58149 19.8799 9.57751C19.8545 9.57351 19.8296 9.57744 19.8089 9.58746C18.3837 10.2752 16.6141 8.9782 17.1848 7.32606L17.5341 6.31452C17.5911 6.14953 17.5506 5.96158 17.41 5.82594L14.089 2.62071C14.0722 2.60451 14.0304 2.57887 13.9476 2.59973C13.8611 2.62154 13.8196 2.67332 13.8071 2.70777C13.2092 4.36731 12.154 6.62687 10.6158 8.1115L8.51011 10.1437ZM18.8823 7.92932C18.8823 7.9295 18.8823 7.9295 18.8823 7.92928L18.8823 7.92932ZM6.51996 10.7662C6.48775 10.7662 6.46481 10.7778 6.4508 10.7913L5.40956 11.7963C5.20116 11.9974 5.20116 12.3098 5.40956 12.5109L6.01451 13.0948C7.22756 14.2656 6.77719 16.11 5.56863 16.9283C4.66974 17.5369 3.9442 18.2269 3.6318 18.8768C3.4848 19.1826 3.44646 19.4432 3.48637 19.6749C3.52594 19.9046 3.65865 20.2005 4.02123 20.5504C4.38264 20.8992 4.69804 21.0366 4.95866 21.0784C5.22268 21.1207 5.51173 21.0779 5.83749 20.9321C6.52224 20.6255 7.23786 19.9211 7.86438 19.0592C8.7157 17.8879 10.5684 17.4899 11.7462 18.6266L12.3512 19.2106C12.5776 19.429 12.9573 19.429 13.1837 19.2106L14.2249 18.2057C14.2325 18.1983 14.2349 18.1933 14.2358 18.1912C14.2364 18.1897 14.2369 18.1883 14.2371 18.1868C14.2373 18.1856 14.2374 18.1844 14.2374 18.1833C14.2374 18.1806 14.2369 18.178 14.2358 18.1753C14.2349 18.1732 14.2325 18.1682 14.2249 18.1608L6.58911 10.7913C6.5751 10.7778 6.55216 10.7662 6.51996 10.7662Z" fill="#007AFF"/>
</svg>

<svg xmlns="http://www.w3.org/2000/svg" width="24" height="24" fill="none"><path fill="currentColor" fill-rule="evenodd" d="M12.114 2.098c.46-1.28 2.182-1.78 3.225-.772L18.66 4.53c.635.613.865 1.532.575 2.371l-.349 1.012-.004.014a.1.1 0 0 0 .022.026.1.1 0 0 0 .056.026.1.1 0 0 0 .067-.014 1.92 1.92 0 0 1 2.159.342l-.625.648.625-.648.367.355a2.51 2.51 0 0 1 0 3.631l-5.585 5.39a1.82 1.82 0 0 1-.493 1.817l-1.041 1.005a2.41 2.41 0 0 1-3.333 0l-.605-.584c-.262-.253-.857-.242-1.176.195-.69.951-1.633 1.96-2.747 2.458-.573.257-1.219.39-1.9.28-.684-.11-1.323-.45-1.902-1.01-.577-.557-.941-1.183-1.058-1.865-.118-.68.026-1.32.296-1.883.522-1.086 1.571-1.996 2.55-2.66a.83.83 0 0 0 .36-.557.54.54 0 0 0-.154-.49l-.605-.584a2.286 2.286 0 0 1 0-3.305L5.2 9.496a1.9 1.9 0 0 1 1.858-.453l2.308-2.227c1.236-1.193 2.178-3.136 2.748-4.718M8.51 10.144l6.34 6.118L20.303 11a.71.71 0 0 0 0-1.04l-.367-.355a.1.1 0 0 0-.056-.026.12.12 0 0 0-.071.01c-1.425.687-3.195-.61-2.624-2.262l.35-1.011a.46.46 0 0 0-.125-.49l-3.321-3.204c-.017-.016-.059-.042-.141-.021-.087.022-.128.073-.14.108-.599 1.66-1.654 3.919-3.192 5.403zm-1.99.622a.1.1 0 0 0-.07.025l-1.04 1.005a.487.487 0 0 0 0 .715l.605.584c1.213 1.17.762 3.015-.446 3.833-.9.609-1.625 1.299-1.937 1.949-.147.306-.186.566-.146.798.04.23.173.526.535.875.362.35.677.487.938.528.264.043.553 0 .878-.146.685-.306 1.4-1.01 2.027-1.873.852-1.171 2.704-1.57 3.882-.432l.605.584a.61.61 0 0 0 .833 0l1.04-1.005.012-.015.001-.008-.001-.008-.011-.014-7.636-7.37a.1.1 0 0 0-.069-.025" clip-rule="evenodd"/></svg>
